X:1
T:Ton Doubl Plinn
C:Trad. Pays Plinn, abc file by Bernard Loffet
L:1/8
Q:240
M:2/4
K:G
|:[B3/2G,3/2]c/dG|[AD,]G[FD,]G|[AD,]cB/A/G|[AD,]F[GG,]z:|:[B3/2G,3/2]c/dc|[BG,]d[c/D,/]B/A|[B3/2G,3/2]c/dc|[BG,]d[c/D,/]B/A|[B3/2G,3/2]c/dG|[AD,]G[FD,]G| \
[AD,]cB/A/G|[AD,]F[GG,]z:| \
K:C
Z:Created with TablEdit http://www.tabledit.com/
